SVG_Azure_All/Active Directory Federation Proxy.svg

<?xml version="1.0" encoding="UTF-8" standalone="no"?>
<!-- Generated by Microsoft Visio, SVG Export Active Directory Federation Proxy.svg Page-1 -->

<svg
   xmlns:dc="http://purl.org/dc/elements/1.1/"
   xmlns:cc="http://creativecommons.org/ns#"
   xmlns:rdf="http://www.w3.org/1999/02/22-rdf-syntax-ns#"
   xmlns:svg="http://www.w3.org/2000/svg"
   xmlns="http://www.w3.org/2000/svg"
   xmlns:xlink="http://www.w3.org/1999/xlink"
   xmlns:sodipodi="http://sodipodi.sourceforge.net/DTD/sodipodi-0.dtd"
   xmlns:inkscape="http://www.inkscape.org/namespaces/inkscape"
   width="0.66863477in"
   height="0.78463596in"
   viewBox="0 0 48.141834 56.493998"
   xml:space="preserve"
   class="st10"
   version="1.1"
   id="svg196"
   sodipodi:docname="Active Directory Federation Proxy.svg"
   style="font-size:12px;overflow:visible;color-interpolation-filters:sRGB;fill:none;fill-rule:evenodd;stroke-linecap:square;stroke-miterlimit:3"
   inkscape:version="0.92.5 (2060ec1f9f, 2020-04-08)"><metadata
   id="metadata200"><rdf:RDF><cc:Work
       rdf:about=""><dc:format>image/svg+xml</dc:format><dc:type
         rdf:resource="http://purl.org/dc/dcmitype/StillImage" /></cc:Work></rdf:RDF></metadata><sodipodi:namedview
   pagecolor="#ffffff"
   bordercolor="#666666"
   borderopacity="1"
   objecttolerance="10"
   gridtolerance="10"
   guidetolerance="10"
   inkscape:pageopacity="0"
   inkscape:pageshadow="2"
   inkscape:window-width="640"
   inkscape:window-height="480"
   id="namedview198"
   showgrid="false"
   inkscape:zoom="1.1860135"
   inkscape:cx="42.322347"
   inkscape:cy="22.398051"
   inkscape:window-x="0"
   inkscape:window-y="0"
   inkscape:window-maximized="0"
   inkscape:current-layer="svg196" />
	<style
   type="text/css"
   id="style2">
	<![CDATA[
		.st1 {fill:url(#grad0-11);stroke:none;stroke-linecap:butt;stroke-width:35.9596}
		.st2 {fill:#003067;stroke:none;stroke-linecap:butt;stroke-width:35.9596}
		.st3 {fill:#50e6ff;stroke:none;stroke-linecap:butt;stroke-width:35.9596}
		.st4 {fill:url(#grad0-31);stroke:none;stroke-linecap:butt;stroke-width:33.9999}
		.st5 {fill:#ffffff;stroke:none;stroke-linecap:round;stroke-linejoin:round;stroke-width:0.749997}
		.st6 {fill:url(#grad0-41);stroke:none;stroke-linecap:butt;stroke-width:63.4471}
		.st7 {fill:url(#grad0-59);stroke:none;stroke-linecap:butt;stroke-width:9.52776}
		.st8 {fill:#ffffff;stroke:none;stroke-width:0.999997}
		.st9 {fill:none;stroke:none;stroke-linecap:butt;stroke-width:0.749997;visibility:hidden}
		.st10 {fill:none;fill-rule:evenodd;font-size:12px;overflow:visible;stroke-linecap:square;stroke-miterlimit:3}
	]]>
	</style>

	<defs
   id="Patterns_And_Gradients">
		<linearGradient
   id="grad0-11"
   x1="-0.00036490616"
   y1="73.215537"
   x2="41.500295"
   y2="73.215537"
   gradientTransform="scale(0.76866924,1.3009497)"
   gradientUnits="userSpaceOnUse">
			<stop
   offset="0"
   stop-color="#949494"
   stop-opacity="1"
   id="stop4" />
			<stop
   offset="0.53"
   stop-color="#a2a2a2"
   stop-opacity="1"
   id="stop6" />
			<stop
   offset="1"
   stop-color="#b3b3b3"
   stop-opacity="1"
   id="stop8" />
		</linearGradient>
		<linearGradient
   id="grad0-31"
   x1="0"
   y1="117.66412"
   x2="32.384527"
   y2="117.66412"
   gradientTransform="scale(1.0054184,0.99461079)"
   gradientUnits="userSpaceOnUse">
			<stop
   offset="0"
   stop-color="#0879e2"
   stop-opacity="1"
   id="stop11" />
			<stop
   offset="0.325"
   stop-color="#0a7de4"
   stop-opacity="1"
   id="stop13" />
			<stop
   offset="0.62"
   stop-color="#1088eb"
   stop-opacity="1"
   id="stop15" />
			<stop
   offset="0.91"
   stop-color="#199af6"
   stop-opacity="1"
   id="stop17" />
			<stop
   offset="1"
   stop-color="#1da2fa"
   stop-opacity="1"
   id="stop19" />
		</linearGradient>
		<linearGradient
   id="grad0-41"
   x1="0"
   y1="0"
   x2="1"
   y2="0">
			<stop
   offset="0"
   stop-color="#0379d5"
   stop-opacity="1"
   id="stop22" />
			<stop
   offset="1"
   stop-color="#5c9fee"
   stop-opacity="1"
   id="stop24" />
		</linearGradient>
		<linearGradient
   id="grad0-59"
   x1="0.25446595"
   y1="141.01508"
   x2="22.693347"
   y2="141.01508"
   gradientTransform="scale(1.095965,0.9124379)"
   gradientUnits="userSpaceOnUse">
			<stop
   offset="0"
   stop-color="#0078d4"
   stop-opacity="1"
   id="stop27" />
			<stop
   offset="0.16"
   stop-color="#1380da"
   stop-opacity="1"
   id="stop29" />
			<stop
   offset="0.53"
   stop-color="#3c91e5"
   stop-opacity="1"
   id="stop31" />
			<stop
   offset="0.82"
   stop-color="#559cec"
   stop-opacity="1"
   id="stop33" />
			<stop
   offset="1"
   stop-color="#5ea0ef"
   stop-opacity="1"
   id="stop35" />
		</linearGradient>
	<linearGradient
   inkscape:collect="always"
   xlink:href="#grad0-41"
   id="linearGradient4710"
   x1="0"
   y1="195.45997"
   x2="15.371408"
   y2="195.45997"
   gradientTransform="scale(1.4126906,0.70786909)"
   gradientUnits="userSpaceOnUse" /><linearGradient
   inkscape:collect="always"
   xlink:href="#grad0-41"
   id="linearGradient4712"
   x1="0"
   y1="195.45997"
   x2="15.371408"
   y2="195.45997"
   gradientTransform="scale(1.4126906,0.70786909)"
   gradientUnits="userSpaceOnUse" /></defs>
	<g
   id="g194"
   transform="translate(-42.564195,-34.9246)">
		<title
   id="title39">Page-1</title>
		<g
   id="group10531-1"
   transform="translate(42.5644,-57.8214)">
			<title
   id="title41">Active Directory Federation Proxy</title>
			<g
   id="group10532-2">
				<title
   id="title43">Page-1</title>
				<g
   id="group10533-3">
					<title
   id="title45">Sheet.10533</title>
					<g
   id="group10534-4"
   transform="translate(0,-1.46809)">
						<title
   id="title47">Sheet.10534</title>
						<g
   id="group10535-5">
							<title
   id="title49">Icon-databases-136.149</title>
							<g
   id="group10536-6">
								<title
   id="title51">path4-5</title>
								<g
   id="group10537-7">
									<title
   id="title53">Sheet.10537</title>
									<g
   id="shape10538-8">
										<title
   id="title55">Sheet.10538</title>
										<path
   d="m 31.9,147.41 a 1.88381,1.87311 -180 0 1 -1.85,1.83 H 1.85 A 1.85134,1.84081 -180 0 1 0,147.41 V 97.09 a 1.81885,1.80851 -180 0 1 1.85,-1.84 h 28.2 a 1.85134,1.84081 -180 0 1 1.85,1.84 z"
   class="st1"
   id="path57"
   inkscape:connector-curvature="0"
   style="fill:url(#grad0-11);stroke:none;stroke-width:35.95959854;stroke-linecap:butt" />
									</g>
								</g>
							</g>
							<g
   id="group10539-12"
   transform="translate(4.67705,-31.6166)">
								<title
   id="title62">path6-7</title>
								<g
   id="group10540-13">
									<title
   id="title64">Sheet.10540</title>
									<g
   id="shape10541-14">
										<title
   id="title66">Sheet.10541</title>
										<path
   d="m 0,145.79 a 3.47531,3.45556 -180 0 1 3.45,-3.43 h 15.91 a 3.47531,3.45556 -180 0 1 3.57,3.43 3.47531,3.45556 -180 0 1 -3.57,3.45 H 3.45 A 3.47531,3.45556 -180 0 1 0,145.79 Z m 0,-10.21 a 3.47531,3.45556 -180 0 1 3.45,-3.45 h 15.91 a 3.47531,3.45556 -180 0 1 3.57,3.45 3.47531,3.45556 -180 0 1 -3.57,3.43 H 3.45 A 3.47531,3.45556 -180 0 1 0,135.58 Z"
   class="st2"
   id="path68"
   inkscape:connector-curvature="0"
   style="fill:#003067;stroke:none;stroke-width:35.95959854;stroke-linecap:butt" />
									</g>
								</g>
							</g>
							<g
   id="group10542-16"
   transform="translate(5.97622,-42.9459)">
								<title
   id="title73">circle8-5</title>
								<g
   id="group10543-17">
									<title
   id="title75">Sheet.10543</title>
									<g
   id="shape10544-18">
										<title
   id="title77">Sheet.10544</title>
										<ellipse
   cx="2.3385201"
   cy="146.91499"
   rx="2.3385201"
   ry="2.3252399"
   class="st3"
   id="ellipse79"
   style="fill:#50e6ff;stroke:none;stroke-width:35.95959854;stroke-linecap:butt" />
									</g>
								</g>
							</g>
							<g
   id="group10545-20"
   transform="translate(5.97622,-32.7407)">
								<title
   id="title84">circle10-2</title>
								<g
   id="group10546-21">
									<title
   id="title86">Sheet.10546</title>
									<g
   id="shape10547-22">
										<title
   id="title88">Sheet.10547</title>
										<ellipse
   cx="2.3385201"
   cy="146.91499"
   rx="2.3385201"
   ry="2.3252399"
   class="st3"
   id="ellipse90"
   style="fill:#50e6ff;stroke:none;stroke-width:35.95959854;stroke-linecap:butt" />
									</g>
								</g>
							</g>
						</g>
					</g>
					<g
   id="group10548-24"
   transform="translate(15.5816)">
						<title
   id="title97">Sheet.10548</title>
						<g
   id="group10549-25">
							<title
   id="title99">Sheet.10549</title>
							<g
   id="group10550-26">
								<title
   id="title101">g8</title>
								<g
   id="group10551-27">
									<title
   id="title103">path6</title>
									<g
   id="shape10552-28">
										<title
   id="title105">Sheet.10552</title>
										<path
   d="m 16.28,117.03 c -9.05,0 -16.28,7.34 -16.28,16.1 0,8.96 7.42,16.11 16.28,16.11 8.85,0 16.28,-7.34 16.28,-16.11 0,-8.76 -7.23,-16.1 -16.28,-16.1 z m 0,2.12 c 7.81,0 14.12,6.25 14.12,13.98 0,7.74 -6.38,13.99 -14.12,13.99 -7.75,0 -14.13,-6.32 -14.13,-13.99 0,-7.66 6.32,-13.98 14.13,-13.98 z"
   class="st4"
   id="path107"
   inkscape:connector-curvature="0"
   style="fill:url(#grad0-31);stroke:none;stroke-width:33.99990082;stroke-linecap:butt" />
									</g>
								</g>
							</g>
							<g
   id="group10553-32"
   transform="translate(1.39999,-1.38131)">
								<title
   id="title112">Sheet.10553</title>
								<g
   id="shape10554-33">
									<title
   id="title114">Sheet.10554</title>
									<ellipse
   cx="14.8791"
   cy="134.517"
   rx="14.8791"
   ry="14.723"
   class="st5"
   id="ellipse116"
   style="fill:#ffffff;stroke:none;stroke-width:0.74999702;stroke-linecap:round;stroke-linejoin:round" />
								</g>
							</g>
						</g>
						<g
   id="group10555-35"
   transform="translate(5.30109,-5.65425)">
							<title
   id="title121">Sheet.10555</title>
							<g
   id="group10556-36"
   transform="translate(2.8371e-4)">
								<title
   id="title123">Sheet.10556</title>
								<g
   id="group10557-37">
									<title
   id="title125">path33</title>
									<g
   id="shape10558-38"
   transform="matrix(1,0,0,-1,0,287.631)">
										<title
   id="title127">Sheet.10558</title>
										<path
   d="m 21.49,143.48 -6.21,-5.05 a 0.332346,0.270582 0 0 0 -0.553912,0.22549 L 14.74,141.72 a 0.332346,0.270582 -180 0 1 -0.332346,0.27058 L 0,141.99 v 3.75 h 14.4 a 0.332346,0.270582 -180 0 1 0.332346,0.27058 L 14.74,149.12 a 0.332346,0.270582 0 0 0 0.553912,0 L 21.49,144.29 a 0.664692,0.541163 0 0 0 0,-0.81175 z"
   class="st6"
   id="path129"
   inkscape:connector-curvature="0"
   style="fill:url(#linearGradient4710);stroke:none;stroke-width:63.44710159;stroke-linecap:butt" />
									</g>
								</g>
							</g>
							<g
   id="group10559-42"
   transform="translate(0,-9.09726)">
								<title
   id="title134">path33.668</title>
								<g
   id="shape10560-43"
   transform="matrix(-1,0,0,1,21.7171,0)">
									<title
   id="title136">Sheet.10560</title>
									<path
   d="m 21.49,143.48 -6.21,-5.05 a 0.332346,0.270582 0 0 0 -0.553912,0.22549 L 14.74,141.72 a 0.332346,0.270582 -180 0 1 -0.332346,0.27058 L 0,141.99 v 3.75 h 14.4 a 0.332346,0.270582 -180 0 1 0.332346,0.27058 L 14.74,149.12 a 0.332346,0.270582 0 0 0 0.553912,0 L 21.49,144.29 a 0.664692,0.541163 0 0 0 0,-0.81175 z"
   class="st6"
   id="path138"
   inkscape:connector-curvature="0"
   style="fill:url(#linearGradient4712);stroke:none;stroke-width:63.44710159;stroke-linecap:butt" />
								</g>
							</g>
						</g>
					</g>
					<g
   id="group10561-46"
   transform="translate(23.0396,-35.9215)">
						<title
   id="title144">Sheet.10561</title>
						<g
   id="group10562-47"
   transform="translate(1.97728,-1.20673)">
							<title
   id="title146">Sheet.10562</title>
							<g
   id="shape10563-48">
								<title
   id="title148">Sheet.10563</title>
								<path
   d="m 0,149.24 10.6,-17.6 10.65,17.6 z"
   class="st5"
   id="path150"
   inkscape:connector-curvature="0"
   style="fill:#ffffff;stroke:none;stroke-width:0.74999702;stroke-linecap:round;stroke-linejoin:round" />
							</g>
						</g>
						<g
   id="group10564-50">
							<title
   id="title154">Page-1</title>
							<g
   id="group10565-51">
								<title
   id="title156">ADFS</title>
								<g
   id="group10566-52">
									<title
   id="title158">Sheet.10566</title>
									<g
   id="group10567-53">
										<title
   id="title160">Sheet.10567</title>
										<g
   id="group10568-54">
											<title
   id="title162">Sheet.10568</title>
											<g
   id="group10569-55">
												<title
   id="title164">path14-5-6</title>
												<g
   id="shape10570-56">
													<title
   id="title166">Sheet.10570</title>
													<path
   d="m 24.66,147.77 -11.2,-18.51 c -0.5,-0.79 -1.28,-0.79 -1.77,0 l -11.2,18.51 c -0.49,0.78 -0.1,1.36 0.89,1.36 h 22.39 c 0.99,0.11 1.38,-0.58 0.89,-1.36 z m -5.5,-0.39 h -4.92 v -2.93 h 1.98 v -1.96 h -2.95 -1 -2.93 v 1.96 h 1.96 v 2.93 H 6.39 v -2.93 h 1.97 v -2.93 h 0.99 2.92 v -1.97 h -1.96 v -2.92 h 4.91 v 2.92 h -1.98 v 1.97 h 2.95 0.99 v 2.93 h 1.97 v 2.93 z"
   class="st7"
   id="path168"
   inkscape:connector-curvature="0"
   style="fill:url(#grad0-59);stroke:none;stroke-width:9.52775955;stroke-linecap:butt" />
												</g>
											</g>
											<g
   id="group10571-60"
   transform="translate(10.3095,-9.68702)">
												<title
   id="title172">rect1197</title>
												<g
   id="shape10572-61">
													<title
   id="title174">Sheet.10572</title>
													<rect
   x="0"
   y="146.312"
   width="4.9098802"
   height="2.92764"
   class="st8"
   id="rect176"
   style="fill:#ffffff;stroke:none;stroke-width:0.99999702" />
												</g>
												<g
   id="shape10573-63">
													<title
   id="title179">Sheet.10573</title>
													<rect
   x="0"
   y="146.312"
   width="4.9098802"
   height="2.92764"
   class="st9"
   id="rect181"
   style="visibility:hidden;fill:none;stroke:none;stroke-width:0.74999702;stroke-linecap:butt" />
												</g>
											</g>
										</g>
									</g>
								</g>
							</g>
						</g>
					</g>
				</g>
			</g>
		</g>
	</g>
</svg>

<?xml version="1.0" encoding="UTF-8" standalone="no"?>
<!DOCTYPE svg PUBLIC "-//W3C//DTD SVG 1.1//EN" "http://www.w3.org/Graphics/SVG/1.1/DTD/svg11.dtd">
<!-- Generated by Microsoft Visio, SVG Export Active Directory Federation Proxy.svg Page-1 -->
<svg xmlns="http://www.w3.org/2000/svg" xmlns:xlink="http://www.w3.org/1999/xlink" xmlns:ev="http://www.w3.org/2001/xml-events"
		width="2.06405in" height="2.07277in" viewBox="0 0 148.612 149.24" xml:space="preserve" color-interpolation-filters="sRGB"
		class="st10">
	<style type="text/css">
	<![CDATA[
		.st1 {fill:url(#grad0-11);stroke:none;stroke-linecap:butt;stroke-width:35.9596}
		.st2 {fill:#003067;stroke:none;stroke-linecap:butt;stroke-width:35.9596}
		.st3 {fill:#50e6ff;stroke:none;stroke-linecap:butt;stroke-width:35.9596}
		.st4 {fill:url(#grad0-31);stroke:none;stroke-linecap:butt;stroke-width:33.9999}
		.st5 {fill:#ffffff;stroke:none;stroke-linecap:round;stroke-linejoin:round;stroke-width:0.749997}
		.st6 {fill:url(#grad0-41);stroke:none;stroke-linecap:butt;stroke-width:63.4471}
		.st7 {fill:url(#grad0-59);stroke:none;stroke-linecap:butt;stroke-width:9.52776}
		.st8 {fill:#ffffff;stroke:none;stroke-width:0.999997}
		.st9 {fill:none;stroke:none;stroke-linecap:butt;stroke-width:0.749997;visibility:hidden}
		.st10 {fill:none;fill-rule:evenodd;font-size:12px;overflow:visible;stroke-linecap:square;stroke-miterlimit:3}
	]]>
	</style>

	<defs id="Patterns_And_Gradients">
		<linearGradient id="grad0-11" x1="0" y1="0" x2="1" y2="0" gradientTransform="rotate(-90 0.5 0.5)">
			<stop offset="0" stop-color="#949494" stop-opacity="1"/>
			<stop offset="0.53" stop-color="#a2a2a2" stop-opacity="1"/>
			<stop offset="1" stop-color="#b3b3b3" stop-opacity="1"/>
		</linearGradient>
		<linearGradient id="grad0-31" x1="0" y1="0" x2="1" y2="0" gradientTransform="rotate(-90 0.5 0.5)">
			<stop offset="0" stop-color="#0879e2" stop-opacity="1"/>
			<stop offset="0.325" stop-color="#0a7de4" stop-opacity="1"/>
			<stop offset="0.62" stop-color="#1088eb" stop-opacity="1"/>
			<stop offset="0.91" stop-color="#199af6" stop-opacity="1"/>
			<stop offset="1" stop-color="#1da2fa" stop-opacity="1"/>
		</linearGradient>
		<linearGradient id="grad0-41" x1="0" y1="0" x2="1" y2="0" gradientTransform="rotate(0 0.5 0.5)">
			<stop offset="0" stop-color="#0379d5" stop-opacity="1"/>
			<stop offset="1" stop-color="#5c9fee" stop-opacity="1"/>
		</linearGradient>
		<linearGradient id="grad0-59" x1="0" y1="0" x2="1" y2="0" gradientTransform="rotate(-89.652058299692 0.5 0.5)">
			<stop offset="0" stop-color="#0078d4" stop-opacity="1"/>
			<stop offset="0.16" stop-color="#1380da" stop-opacity="1"/>
			<stop offset="0.53" stop-color="#3c91e5" stop-opacity="1"/>
			<stop offset="0.82" stop-color="#559cec" stop-opacity="1"/>
			<stop offset="1" stop-color="#5ea0ef" stop-opacity="1"/>
		</linearGradient>
	</defs>
	<g>
		<title>Page-1</title>
		<g id="group10300-1" transform="translate(42.5644,-57.8214)">
			<title>Active Directory Federation Proxy</title>
			<g id="group10301-2">
				<title>Page-1</title>
				<g id="group10302-3">
					<title>Sheet.10302</title>
					<g id="group10303-4" transform="translate(2.43805E-13,-1.46809)">
						<title>Sheet.10303</title>
						<g id="group10304-5">
							<title>Icon-databases-136.149</title>
							<g id="group10305-6">
								<title>path4-5</title>
								<g id="group10306-7">
									<title>Sheet.10306</title>
									<g id="shape10307-8">
										<title>Sheet.10307</title>
										<path d="M31.9 147.41 A1.88381 1.87311 -180 0 1 30.05 149.24 L1.85 149.24 A1.85134 1.84081
													 -180 0 1 -0 147.41 L0 97.09 A1.81885 1.80851 -180 0 1 1.85 95.25 L30.05 95.25
													 A1.85134 1.84081 -180 0 1 31.9 97.09 L31.9 147.41 Z" class="st1"/>
									</g>
								</g>
							</g>
							<g id="group10308-12" transform="translate(4.67705,-31.6166)">
								<title>path6-7</title>
								<g id="group10309-13">
									<title>Sheet.10309</title>
									<g id="shape10310-14">
										<title>Sheet.10310</title>
										<path d="M0 145.79 A3.47531 3.45556 -180 0 1 3.45 142.36 L19.36 142.36 A3.47531 3.45556 -180
													 0 1 22.93 145.79 A3.47531 3.45556 -180 0 1 19.36 149.24 L3.45 149.24 A3.47531
													 3.45556 -180 0 1 -0 145.79 ZM0 135.58 A3.47531 3.45556 -180 0 1 3.45 132.13
													 L19.36 132.13 A3.47531 3.45556 -180 0 1 22.93 135.58 A3.47531 3.45556 -180 0
													 1 19.36 139.01 L3.45 139.01 A3.47531 3.45556 -180 0 1 0 135.58 Z" class="st2"/>
									</g>
								</g>
							</g>
							<g id="group10311-16" transform="translate(5.97622,-42.9459)">
								<title>circle8-5</title>
								<g id="group10312-17">
									<title>Sheet.10312</title>
									<g id="shape10313-18">
										<title>Sheet.10313</title>
										<ellipse cx="2.33852" cy="146.915" rx="2.33852" ry="2.32524" class="st3"/>
									</g>
								</g>
							</g>
							<g id="group10314-20" transform="translate(5.97622,-32.7407)">
								<title>circle10-2</title>
								<g id="group10315-21">
									<title>Sheet.10315</title>
									<g id="shape10316-22">
										<title>Sheet.10316</title>
										<ellipse cx="2.33852" cy="146.915" rx="2.33852" ry="2.32524" class="st3"/>
									</g>
								</g>
							</g>
						</g>
					</g>
					<g id="group10317-24" transform="translate(15.5816,2.84217E-13)">
						<title>Sheet.10317</title>
						<g id="group10318-25">
							<title>Sheet.10318</title>
							<g id="group10319-26">
								<title>g8</title>
								<g id="group10320-27">
									<title>path6</title>
									<g id="shape10321-28">
										<title>Sheet.10321</title>
										<path d="M16.28 117.03 C7.23 117.03 0 124.37 0 133.13 C0 142.09 7.42 149.24 16.28 149.24
													 C25.13 149.24 32.56 141.9 32.56 133.13 C32.56 124.37 25.33 117.03 16.28 117.03
													 ZM16.28 119.15 C24.09 119.15 30.4 125.4 30.4 133.13 C30.4 140.87 24.02 147.12
													 16.28 147.12 C8.53 147.12 2.15 140.8 2.15 133.13 C2.15 125.47 8.47 119.15 16.28
													 119.15 Z" class="st4"/>
									</g>
								</g>
							</g>
							<g id="group10322-32" transform="translate(1.39999,-1.38131)">
								<title>Sheet.10322</title>
								<g id="shape10323-33">
									<title>Sheet.10323</title>
									<ellipse cx="14.8791" cy="134.517" rx="14.8791" ry="14.723" class="st5"/>
								</g>
							</g>
						</g>
						<g id="group10324-35" transform="translate(5.30109,-5.65425)">
							<title>Sheet.10324</title>
							<g id="group10325-36" transform="translate(0.00028371,0)">
								<title>Sheet.10325</title>
								<g id="group10326-37">
									<title>path33</title>
									<g id="shape10327-38" transform="translate(0,287.631) scale(1,-1)">
										<title>Sheet.10327</title>
										<path d="M21.49 143.48 L15.28 138.43 a0.332346 0.270582 -0 0 0 -0.553912 0.225486 L14.74
													 141.72 a0.332346 0.270582 180 0 1 -0.332346 0.270582 L0 141.99 L0 145.74 L14.4
													 145.74 a0.332346 0.270582 180 0 1 0.332346 0.270582 L14.74 149.12 a0.332346
													 0.270582 -0 0 0 0.553912 0 L21.49 144.29 a0.664692 0.541163 -0 0 0 4.9738E-14
													 -0.811746 L21.49 143.48 Z" class="st6"/>
									</g>
								</g>
							</g>
							<g id="group10328-42" transform="translate(0,-9.09726)">
								<title>path33.668</title>
								<g id="shape10329-43" transform="translate(21.7171,-1.13687E-13) scale(-1,1)">
									<title>Sheet.10329</title>
									<path d="M21.49 143.48 L15.28 138.43 a0.332346 0.270582 -0 0 0 -0.553912 0.225486 L14.74 141.72
												 a0.332346 0.270582 180 0 1 -0.332346 0.270582 L0 141.99 L0 145.74 L14.4 145.74 a0.332346
												 0.270582 180 0 1 0.332346 0.270582 L14.74 149.12 a0.332346 0.270582 -0 0 0 0.553912
												 0 L21.49 144.29 a0.664692 0.541163 -0 0 0 2.84217E-14 -0.811746 L21.49 143.48 Z"
											class="st6"/>
								</g>
							</g>
						</g>
					</g>
					<g id="group10330-46" transform="translate(23.0396,-35.9215)">
						<title>Sheet.10330</title>
						<g id="group10331-47" transform="translate(1.97728,-1.20673)">
							<title>Sheet.10331</title>
							<g id="shape10332-48">
								<title>Sheet.10332</title>
								<path d="M0 149.24 L10.6 131.64 L21.25 149.24 L0 149.24 Z" class="st5"/>
							</g>
						</g>
						<g id="group10333-50">
							<title>Page-1</title>
							<g id="group10334-51">
								<title>ADFS</title>
								<g id="group10335-52">
									<title>Sheet.10335</title>
									<g id="group10336-53">
										<title>Sheet.10336</title>
										<g id="group10337-54">
											<title>Sheet.10337</title>
											<g id="group10338-55">
												<title>path14-5-6</title>
												<g id="shape10339-56">
													<title>Sheet.10339</title>
													<path d="M24.66 147.77 L13.46 129.26 C12.96 128.47 12.18 128.47 11.69 129.26
																 L0.49 147.77 C0 148.55 0.39 149.13 1.38 149.13 L23.77 149.13 C24.76
																 149.24 25.15 148.55 24.66 147.77 ZM19.16 147.38 L14.24 147.38 L14.24
																 144.45 L16.22 144.45 L16.22 142.49 L13.27 142.49 L12.27 142.49 L9.34
																 142.49 L9.34 144.45 L11.3 144.45 L11.3 147.38 L6.39 147.38 L6.39
																 144.45 L8.36 144.45 L8.36 141.52 L9.35 141.52 L12.27 141.52 L12.27
																 139.55 L10.31 139.55 L10.31 136.63 L15.22 136.63 L15.22 139.55 L13.24
																 139.55 L13.24 141.52 L16.19 141.52 L17.18 141.52 L17.18 144.45 L19.15
																 144.45 L19.15 147.38 L19.16 147.38 Z" class="st7"/>
												</g>
											</g>
											<g id="group10340-60" transform="translate(10.3095,-9.68702)">
												<title>rect1197</title>
												<g id="shape10341-61">
													<title>Sheet.10341</title>
													<rect x="0" y="146.312" width="4.90988" height="2.92764" class="st8"/>
												</g>
												<g id="shape10342-63">
													<title>Sheet.10342</title>
													<rect x="0" y="146.312" width="4.90988" height="2.92764" class="st9"/>
												</g>
											</g>
										</g>
									</g>
								</g>
							</g>
						</g>
					</g>
				</g>
			</g>
		</g>
	</g>
</svg>
